svg/us/ma/taunton.svg

<svg xmlns="http://www.w3.org/2000/svg" width="1050" height="700"><path fill="#bf0a30" d="M0 0h1050v700H0z"/><path fill="#002868" d="M0 0h376.923v376.923H0z"/><g fill="#fff"><path d="M0 0h38.051l338.872 338.872v38.051h-38.051L0 38.051"/><path d="M376.923 0h-38.051L0 338.872v38.051h38.051L376.923 38.051"/><path d="M0 138.205h376.923v100.513H0z"/><path d="M138.205 0h100.513v376.923H138.205z"/></g><g fill="#bf0a30"><path d="M0 163.333h379.077v50.257H0z"/><path d="M163.333 0h50.257v379.077h-50.257z"/></g><path d="M79.677 519.825h16.918v52.822h29.707v12.788H79.676zm57.304 0H153.9v65.61h-16.919zm67.984 18.457c0-4.762-3.11-6.944-8.13-6.944h-9.361v13.887h9.361c5.049 0 8.13-2.128 8.13-6.943zm2.681 26.982c0-6.062-3.814-8.525-10.24-8.525h-9.932v17.182h9.932c5.278 0 10.24-1.731 10.24-8.657zm14.239-28.081c-.002 6.854-3.484 11.133-8.747 13.14 6.896 2.001 11.426 7.724 11.426 16.303 0 15.047-12.252 18.809-25.928 18.809h-28.081v-65.61h25.402c20.742 0 25.926 6.941 25.928 17.358zm17.225-17.358h45.66v12.788h-28.74v12.217h27.025v12.788H256.03v15.029h29.706v12.788H239.11zm95.494 20.61c0-6.68-3.973-8.35-9.932-8.35h-7.12v16.831h7.12c5.958.002 9.932-1.696 9.932-8.481zm16.918-2.505c0 9.482-4.853 14.407-12.612 16.831 2.314.528 4.387 1.721 6.218 3.582 1.831 1.86 3.685 4.68 5.56 8.459l9.184 18.633h-18.018l-7.998-16.304c-2.244-4.57-4.605-8.525-11.513-8.525h-4.791v24.829h-16.917v-65.61h25.838c20.039 0 25.049 7.242 25.049 18.105zm10.547-18.105h60.469v12.788h-21.753v52.822h-16.919v-52.822h-21.797zm65.029 0h18.501l14.943 23.379 14.94-23.379h18.545l-25.005 37.968v27.642h-16.918v-27.642zm118.025 59.235h-14.111l-2.226 6.375h-9.069l12.96-34.992h10.757l12.962 34.992h-9.071zm-11.861-6.492h9.586l-4.781-13.922zm27.75-22.125h10.08l12.725 24v-24h8.556v34.992h-10.079l-12.727-24v24h-8.555zm63.844 17.461c0-7.074-4.152-10.641-11.366-10.641h-3.235v21.352h3.235c7.207 0 11.366-3.628 11.366-10.711zm9.305 0c0 16.322-13.337 17.531-23.413 17.531h-9.517v-34.992h9.517c13.666 0 23.413 3.204 23.413 17.461zm70.316 18.805c-18.909 0-28.258-8.789-28.258-27.553v-39.331h16.919v39.331c0 9.07 2.268 15.117 11.339 15.117 9.105 0 11.381-6.047 11.381-15.117v-39.331h16.919v39.331c0 18.782-9.356 27.553-28.3 27.553zm44.867-66.884h18.897l23.863 45v-45h16.04v65.61h-18.896l-23.863-45v45h-16.041zm75.411 0h16.92v65.61h-16.92zm79.849 32.871c0-12.498-4.9-21.797-16.303-21.797-11.333 0-16.26 9.361-16.26 21.797 0 12.437 4.919 21.753 16.26 21.753 11.359 0 16.303-9.337 16.303-21.753zm-50.053 0c0-21.004 12.83-34.058 33.75-34.058 20.966 0 33.748 13.043 33.75 34.058-.002 20.977-12.806 34.013-33.75 34.013-20.903 0-33.75-13.058-33.75-34.013zm80.241-32.871h18.899l23.861 45v-45h16.04v65.61h-18.891l-23.869-45v45h-16.04z" fill="#fff"/></svg>

<?xml version="1.0" encoding="UTF-8" standalone="no"?>
<svg xmlns="http://www.w3.org/2000/svg" width="1050" height="700">
<rect fill="#bf0a30" width="1050" height="700"/>
<g transform="scale(0.71794872,0.71794872)">
<rect fill="#002868" width="525" height="525"/>
<g fill="#ffffff">
<path d="M0,0H53L525,472V525H472L0,53"/>
<path d="M525,0H472L0,472V525H53L525,53"/>
<rect y="192.5" width="525" height="140"/>
<rect x="192.5" width="140" height="525"/></g>
<g fill="#bf0a30">
<rect y="227.5" width="528" height="70"/>
<rect x="227.5" width="70" height="528"/></g></g>
<path d="M79.6765,519.825H96.5955V572.647H126.302V585.435H79.6765Z
M136.981,519.825H153.9V585.435H136.981Z
M204.965,538.282
C204.965,533.52,201.855,531.338,196.835,531.338H187.474V545.225H196.835
C201.884,545.225,204.965,543.097,204.965,538.282Z
M207.646,565.264
C207.646,559.202,203.832,556.739,197.406,556.739H187.474V573.921H197.406
C202.684,573.921,207.646,572.19,207.646,565.264Z
M221.885,537.183
C221.883,544.037,218.401,548.316,213.138,550.323
C220.034,552.324,224.564,558.047,224.564,566.626
C224.564,581.673,212.312,585.435,198.636,585.435H170.555V519.825H195.957
C216.699,519.825,221.883,526.766,221.885,537.183Z
M239.11,519.825H284.77V532.613H256.03V544.83H283.055V557.618H256.03V572.647
H285.736V585.435H239.11Z
M334.604,540.435
C334.604,533.755,330.631,532.085,324.672,532.085H317.552V548.916H324.672
C330.63,548.918,334.604,547.22,334.604,540.435Z
M351.522,537.93
C351.522,547.412,346.669,552.337,338.91,554.761
C341.224,555.289,343.297,556.482,345.128,558.343
C346.959,560.203,348.813,563.023,350.688,566.802L359.872,585.435H341.854
L333.856,569.131
C331.612,564.561,329.251,560.606,322.343,560.606H317.552V585.435H300.635
V519.825H326.473
C346.512,519.825,351.522,527.067,351.522,537.93Z
M362.069,519.825H422.538V532.613H400.785V585.435H383.866V532.613H362.069Z
M427.098,519.825H445.599L460.542,543.204L475.482,519.825H494.027
L469.022,557.793V585.435H452.104V557.793Z
M545.123,579.06H531.012L528.786,585.435H519.717L532.677,550.443H543.434
L556.396,585.435H547.325Z
M533.262,572.568H542.848L538.067,558.646Z
M561.012,550.443H571.092L583.817,574.443V550.443H592.373V585.435H582.294
L569.567,561.435V585.435H561.012Z
M624.856,567.904
C624.856,560.83,620.704,557.263,613.49,557.263H610.255V578.615H613.49
C620.697,578.615,624.856,574.987,624.856,567.904Z
M634.161,567.904
C634.161,584.226,620.824,585.435,610.748,585.435H601.231V550.443H610.748
C624.414,550.443,634.161,553.647,634.161,567.904Z
M704.477,586.709
C685.568,586.709,676.219,577.92,676.219,559.156V519.825H693.138V559.156
C693.138,568.226,695.406,574.273,704.477,574.273
C713.582,574.273,715.858,568.226,715.858,559.156V519.825H732.777V559.156
C732.777,577.938,723.421,586.709,704.477,586.709Z
M749.344,519.825H768.241L792.104,564.825V519.825H808.144V585.435H789.248
L765.385,540.435V585.435H749.344Z
M824.755,519.825H841.675V585.435H824.755Z
M904.604,552.696
C904.604,540.198,899.704,530.899,888.301,530.899
C876.968,530.899,872.041,540.26,872.041,552.696
C872.041,565.133,876.96,574.449,888.301,574.449
C899.66,574.449,904.604,565.112,904.604,552.696Z
M854.551,552.696
C854.551,531.692,867.381,518.638,888.301,518.638
C909.267,518.638,922.049,531.681,922.051,552.696
C922.049,573.673,909.245,586.709,888.301,586.709
C867.398,586.709,854.551,573.651,854.551,552.696Z
M934.792,519.825H953.691L977.552,564.825V519.825H993.592V585.435H974.701
L950.832,540.435V585.435H934.792Z" fill="#ffffff"/></svg>
